X: 35649
T: Sailor On The Rock, The
R: reel
M: 4/4
K: Dmajor
|:defd BAFB|AD (3FED FA~A2|defd BAFA|1 Beed egfe:|2 Beed e2df||
|:a2ba fdd2|fbba bafa|afbf afdB|1 ABdf e2df:|2 ABdf e2 (3ABc||

